images/иконки/astronaut.svg

<svg width="78" height="74" viewBox="0 0 78 74" fill="none" xmlns="http://www.w3.org/2000/svg">
<g filter="url(#filter0_d_1_365)">
<path d="M73.9433 9.89637C73.8056 9.47513 73.4416 9.16724 73.0018 9.10298L68.8228 8.49512L66.9526 4.70809C66.5606 3.91005 65.2527 3.91005 64.8608 4.70809L62.9906 8.49512L58.8114 9.10312C58.3716 9.16724 58.0076 9.47418 57.8687 9.89651C57.7323 10.3188 57.8453 10.7831 58.1639 11.0924L61.1891 14.0407L60.4752 18.2034C60.4005 18.6409 60.5802 19.0831 60.9384 19.3445C61.3012 19.6082 61.7748 19.6407 62.168 19.4331L65.9061 17.4672L69.6442 19.4331C69.8146 19.5229 70.0024 19.5672 70.1879 19.5672C70.4294 19.5672 70.671 19.4925 70.874 19.3443C71.2333 19.0831 71.413 18.6408 71.3372 18.2033L70.6233 14.0405L73.6485 11.0923C73.9654 10.7819 74.0798 10.3187 73.9433 9.89637ZM68.5556 12.7991C68.2815 13.0662 68.1555 13.4536 68.2208 13.8316L68.6385 16.2688L66.4499 15.1184C66.2795 15.0286 66.0929 14.9843 65.9061 14.9843C65.7195 14.9843 65.534 15.0286 65.3624 15.1184L63.1736 16.2688L63.5913 13.8316C63.6567 13.4536 63.5306 13.0675 63.2565 12.7991L61.4843 11.0724L63.932 10.7166C64.3124 10.6617 64.6402 10.4226 64.8106 10.0783L65.9049 7.86169L66.9992 10.0783C67.1696 10.4225 67.4974 10.6617 67.8778 10.7166L70.3255 11.0724L68.5556 12.7991Z" fill="#2196F3"/>
<path d="M61.167 44.8923H58.8336V47.2257H61.167V44.8923Z" fill="#2196F3"/>
<path d="M61.167 49.5591H58.8336V51.8925H61.167V49.5591Z" fill="#2196F3"/>
<path d="M63.5004 47.2257H61.167V49.5591H63.5004V47.2257Z" fill="#2196F3"/>
<path d="M58.8337 47.2257H56.5003V49.5591H58.8337V47.2257Z" fill="#2196F3"/>
<path d="M53.0002 57.7259H50.6668V60.0593H53.0002V57.7259Z" fill="#2196F3"/>
<path d="M53.0002 62.3926H50.6668V64.726H53.0002V62.3926Z" fill="#2196F3"/>
<path d="M55.3337 60.0593H53.0002V62.3927H55.3337V60.0593Z" fill="#2196F3"/>
<path d="M50.6668 60.0593H48.3334V62.3927H50.6668V60.0593Z" fill="#2196F3"/>
<path d="M39 53.0592H36.6666V55.3926H39V53.0592Z" fill="#2196F3"/>
<path d="M39 57.7259H36.6666V60.0593H39V57.7259Z" fill="#2196F3"/>
<path d="M41.3334 55.3925H39V57.7259H41.3334V55.3925Z" fill="#2196F3"/>
<path d="M36.6666 55.3925H34.3332V57.7259H36.6666V55.3925Z" fill="#2196F3"/>
<path d="M16.833 13.3918H14.4996V15.7252H16.833V13.3918Z" fill="#2196F3"/>
<path d="M16.833 18.0587H14.4996V20.3921H16.833V18.0587Z" fill="#2196F3"/>
<path d="M19.1663 15.7252H16.8329V18.0586H19.1663V15.7252Z" fill="#2196F3"/>
<path d="M14.4996 15.7252H12.1662V18.0586H14.4996V15.7252Z" fill="#2196F3"/>
<path d="M58.0635 30.9738C57.4348 30.1256 56.5119 29.5797 55.4642 29.4326C54.4119 29.2833 53.3735 29.5597 52.5335 30.2026L49.7952 32.3014L49.794 32.3026L45.6429 35.4025L42.6725 34.2194C47.9692 31.8429 51.6712 26.545 51.6712 20.3942C51.6712 12.0314 44.8402 5.22736 36.4436 5.22736C28.047 5.22736 21.2162 12.0314 21.2162 20.3942C21.2162 23.4253 22.1226 26.2439 23.6662 28.6158L17.6204 28.5633C17.6169 28.5633 17.6134 28.5633 17.6099 28.5633C17.5912 28.5633 17.5761 28.5726 17.5586 28.5738C17.4431 28.5785 17.3299 28.6018 17.2191 28.6415C17.1911 28.652 17.162 28.6579 17.1352 28.6706C17.1212 28.6765 17.1072 28.6776 17.0932 28.6846L10.0208 32.1764C10.0195 32.1764 10.0185 32.1764 10.0185 32.1775L5.87663 34.1693C5.8311 34.1891 5.78448 34.2159 5.73895 34.2462C4.08805 35.3452 3.52572 37.5036 4.42999 39.2676C4.91179 40.2056 5.73198 40.8963 6.74003 41.2124C7.12859 41.3337 7.52521 41.3933 7.91952 41.3933C8.55308 41.3933 9.18077 41.2381 9.75582 40.9313L12.7916 39.3167L17.7441 36.7593L20.7122 36.7418L8.80848 48.5884C8.80738 48.5896 8.80615 48.5896 8.80492 48.5907L5.8765 51.5074C5.18469 52.1958 4.80433 53.1092 4.80433 54.0835C4.80433 55.0565 5.18469 55.9723 5.8765 56.6619C6.58703 57.3689 7.52152 57.7235 8.45601 57.7235C9.39173 57.7235 10.325 57.3689 11.0378 56.6619L13.9125 53.7988L17.7206 50.9556L19.6912 52.9179L15.8376 56.7551C15.8365 56.7564 15.8352 56.7564 15.834 56.7575L12.9056 59.6741C12.2138 60.3625 11.8334 61.2759 11.8334 62.2502C11.8334 63.2233 12.2138 64.139 12.9056 64.8286C13.6161 65.5356 14.5518 65.8903 15.4863 65.8903C16.4208 65.8903 17.3565 65.5356 18.0682 64.8286L20.9977 61.912L25.6842 57.2453C25.6854 57.244 25.6854 57.2429 25.6865 57.2417L27.8951 55.0542L27.8869 55.046C27.9009 55.032 27.9207 55.0272 27.9348 55.0122L39.2353 42.6349L46.8281 43.7152C46.8829 43.7234 46.9377 43.7269 46.9926 43.7269C47.1338 43.7269 47.2703 43.6931 47.4021 43.6429C47.4406 43.629 47.4744 43.6102 47.5106 43.5916C47.5526 43.5706 47.5969 43.559 47.6367 43.5322L54.6659 38.8655C54.6916 38.848 54.7056 38.8199 54.73 38.8013C54.758 38.7792 54.7931 38.7699 54.8186 38.7453L57.5999 36.1401C59.0471 34.7841 59.2466 32.5628 58.0635 30.9738ZM8.66027 38.8722C8.28114 39.0752 7.85061 39.1159 7.43881 38.9854C7.03042 38.8582 6.69915 38.5793 6.50541 38.2025C6.15308 37.5164 6.35721 36.6811 6.97436 36.2296L9.84796 34.8471L10.5398 36.8689L10.8303 37.7182L8.66027 38.8722ZM16.3102 34.874L12.9234 36.6241L12.3646 34.9907L11.9633 33.8169L16.3968 31.6282L16.3102 34.874ZM49.3402 20.3919C49.3402 22.4009 48.8607 24.2957 48.03 25.9907L38.8832 21.8362C38.7875 20.5821 38.1366 19.4842 37.1589 18.8005L40.3615 8.16849C45.5626 9.82295 49.3402 14.6752 49.3402 20.3919ZM23.5519 20.3919C23.5519 13.3159 29.3363 7.55831 36.4461 7.55831C36.9991 7.55831 37.5404 7.60493 38.0759 7.67261L34.9434 18.0713C34.9014 18.0701 34.8617 18.0585 34.8185 18.0585C32.5598 18.0585 30.7222 19.8901 30.7222 22.1419C30.7222 24.3936 32.5598 26.2254 34.8185 26.2254C36.3375 26.2254 37.65 25.3866 38.3582 24.1591L46.8073 27.9975C44.4564 31.1615 40.6938 33.2255 36.4459 33.2255C29.3363 33.2255 23.5519 27.4679 23.5519 20.3919ZM36.5814 22.1419C36.5814 23.1068 35.7903 23.8919 34.8185 23.8919C33.8467 23.8919 33.0557 23.1068 33.0557 22.1419C33.0557 21.1771 33.8467 20.3919 34.8185 20.3919C35.7903 20.3919 36.5814 21.1771 36.5814 22.1419ZM9.39186 55.0074C8.87506 55.5196 8.03846 55.5185 7.52289 55.0087C7.27433 54.7601 7.13788 54.4324 7.13788 54.0835C7.13788 53.7358 7.27433 53.4079 7.52289 53.1618L9.62743 51.0652L11.4894 52.9191L9.39186 55.0074ZM16.4222 63.1743C15.9054 63.6865 15.0677 63.6877 14.552 63.1755C14.3034 62.927 14.167 62.5993 14.167 62.2503C14.167 61.9027 14.3034 61.5748 14.552 61.3287L16.6579 59.231L17.5388 60.1073L18.5211 61.0849L16.4222 63.1743ZM24.0384 55.5862C24.0371 55.5873 24.036 55.5873 24.0348 55.5885L20.1742 59.4385L19.2933 58.5623L18.311 57.5846L22.168 53.7451C22.168 53.7451 22.168 53.7451 22.168 53.744C22.1693 53.7428 22.1703 53.7428 22.1716 53.7417C22.2591 53.6542 22.3139 53.5492 22.3676 53.4454C22.3828 53.415 22.4119 53.3893 22.4248 53.3579C22.461 53.2681 22.4668 53.1713 22.4808 53.0767C22.4878 53.0229 22.5112 52.9729 22.5112 52.9179C22.5112 52.8397 22.4832 52.764 22.4669 52.6869C22.4529 52.6169 22.4529 52.5456 22.426 52.4781C22.3817 52.3684 22.3058 52.2716 22.2265 52.177C22.2044 52.1513 22.1962 52.1186 22.1717 52.0942C22.1717 52.0942 22.1717 52.0942 22.1705 52.0942C22.1693 52.0931 22.1693 52.0906 22.1682 52.0895L18.6529 48.5895C18.6156 48.5521 18.5678 48.537 18.5258 48.5055C18.464 48.4577 18.4045 48.4134 18.3356 48.3795C18.2692 48.3468 18.2015 48.327 18.1315 48.3082C18.0568 48.2872 17.9845 48.2709 17.9063 48.265C17.8351 48.2604 17.7686 48.2674 17.6975 48.2756C17.6193 48.2849 17.5459 48.2954 17.47 48.3199C17.3965 48.3432 17.3312 48.3793 17.2636 48.4179C17.2204 48.4424 17.1714 48.4506 17.1305 48.4809L13.2514 51.3767L11.2808 49.4143L16.5286 44.1946L26.0674 53.576L24.0384 55.5862ZM38.9545 40.2372C38.9207 40.2325 38.8891 40.2454 38.8554 40.2431C38.7702 40.2384 38.6886 40.2443 38.6034 40.2582C38.5369 40.2699 38.4739 40.2827 38.4109 40.3049C38.3362 40.3306 38.2686 40.3656 38.1996 40.4075C38.1343 40.4472 38.0748 40.4892 38.0177 40.5417C37.9896 40.5661 37.9559 40.5779 37.9302 40.6058L27.6527 51.862L18.1851 42.5506L24.3825 36.3859C24.8387 35.9309 24.8411 35.1923 24.386 34.735C24.1562 34.5052 23.8541 34.392 23.5519 34.3932V34.3921L18.6985 34.4212L18.7592 30.9049L25.5493 30.9633C28.3166 33.7937 32.176 35.5589 36.4461 35.5589C37.4027 35.5589 38.3361 35.4598 39.2449 35.2905C39.3324 35.3605 39.4186 35.4317 39.5284 35.476L44.7996 37.5761L45.1332 39.235L45.5228 41.1717L38.9545 40.2372ZM47.7944 40.6269L47.1096 37.2189L50.2736 34.8564L51.102 35.9554L52.3445 37.605L47.7944 40.6269ZM56.0055 34.4341L54.1726 36.1514L52.1356 33.4471L53.9544 32.0529C54.2939 31.7917 54.7221 31.6854 55.1421 31.7403C55.5644 31.7997 55.9378 32.0203 56.1921 32.3621C56.6659 33.0003 56.5853 33.8905 56.0055 34.4341Z" fill="#212121"/>
<path d="M33.7545 40.5651L29.0668 35.8984C28.613 35.4446 27.8755 35.4446 27.4205 35.8984L22.734 40.5651C22.5147 40.7856 22.391 41.0819 22.391 41.3922C22.391 41.7026 22.5135 42.0001 22.734 42.2194L27.4205 46.8861C27.648 47.1124 27.9468 47.2256 28.2443 47.2256C28.5418 47.2256 28.8404 47.1124 29.0668 46.8861L33.7545 42.2194C33.9738 42.0001 34.0987 41.7026 34.0987 41.3922C34.0987 41.0819 33.9749 40.7844 33.7545 40.5651ZM28.2443 44.4128L25.2109 41.3922L28.2443 38.3717L31.2788 41.3922L28.2443 44.4128Z" fill="#212121"/>
<path d="M41.5468 11.0923L40.9833 13.358C41.1385 13.3966 44.7844 14.3462 44.7844 18.0586H47.1178C47.1177 13.6461 43.4742 11.5718 41.5468 11.0923Z" fill="#212121"/>
<path d="M47.1178 20.3919H44.7844V22.7253H47.1178V20.3919Z" fill="#212121"/>
</g>
<defs>
<filter id="filter0_d_1_365" x="0" y="0" width="78" height="78" filterUnits="userSpaceOnUse" color-interpolation-filters="sRGB">
<feFlood flood-opacity="0" result="BackgroundImageFix"/>
<feColorMatrix in="SourceAlpha" type="matrix" values="0 0 0 0 0 0 0 0 0 0 0 0 0 0 0 0 0 0 127 0" result="hardAlpha"/>
<feOffset dy="4"/>
<feGaussianBlur stdDeviation="2"/>
<feComposite in2="hardAlpha" operator="out"/>
<feColorMatrix type="matrix" values="0 0 0 0 0 0 0 0 0 0 0 0 0 0 0 0 0 0 0.25 0"/>
<feBlend mode="normal" in2="BackgroundImageFix" result="effect1_dropShadow_1_365"/>
<feBlend mode="normal" in="SourceGraphic" in2="effect1_dropShadow_1_365" result="shape"/>
</filter>
</defs>
</svg>

<svg width="78" height="74" fill="none" xmlns="http://www.w3.org/2000/svg"><g filter="url(#a)"><path d="M73.943 9.896a1.168 1.168 0 0 0-.941-.793l-4.18-.608-1.87-3.787c-.391-.798-1.7-.798-2.091 0l-1.87 3.787-4.18.608a1.167 1.167 0 0 0-.648 1.99l3.026 2.948-.714 4.162c-.075.438.105.88.463 1.142.363.263.837.296 1.23.088l3.738-1.966 3.738 1.966a1.168 1.168 0 0 0 1.693-1.23l-.714-4.162 3.025-2.949a1.17 1.17 0 0 0 .295-1.196ZM68.556 12.8c-.275.267-.4.655-.335 1.033l.417 2.437-2.188-1.15a1.165 1.165 0 0 0-1.088 0l-2.188 1.15.417-2.437a1.168 1.168 0 0 0-.334-1.033l-1.773-1.727 2.448-.355c.38-.055.708-.294.879-.639l1.094-2.216 1.094 2.216c.17.345.498.584.879.639l2.448.355-1.77 1.727ZM61.167 44.892h-2.333v2.334h2.333v-2.334ZM61.167 49.56h-2.333v2.332h2.333V49.56ZM63.5 47.226h-2.333v2.333H63.5v-2.333ZM58.834 47.226H56.5v2.333h2.334v-2.333ZM53 57.726h-2.333v2.333H53v-2.333ZM53 62.393h-2.333v2.333H53v-2.333ZM55.334 60.06H53v2.333h2.334v-2.334ZM50.667 60.06h-2.334v2.333h2.334v-2.334ZM39 53.06h-2.333v2.333H39v-2.334ZM39 57.726h-2.333v2.333H39v-2.333ZM41.333 55.392H39v2.334h2.333v-2.334ZM36.667 55.392h-2.334v2.334h2.334v-2.334ZM16.833 13.392H14.5v2.333h2.333v-2.333ZM16.833 18.059H14.5v2.333h2.333V18.06ZM19.166 15.725h-2.333v2.334h2.333v-2.334ZM14.5 15.725h-2.334v2.334H14.5v-2.334Z" fill="#2196F3"/><path d="M58.063 30.974a3.88 3.88 0 0 0-2.599-1.541 3.886 3.886 0 0 0-2.93.77L49.794 32.3l-.001.002-4.151 3.1-2.97-1.184c5.296-2.376 8.998-7.674 8.998-13.825 0-8.363-6.83-15.167-15.227-15.167s-15.228 6.804-15.228 15.167c0 3.031.907 5.85 2.45 8.222l-6.046-.053h-.01c-.019 0-.034.01-.051.01a1.14 1.14 0 0 0-.34.069c-.028.01-.057.016-.084.029-.014.006-.028.007-.042.014l-7.072 3.491c-.002 0-.003 0-.003.002l-4.141 1.991a.905.905 0 0 0-.138.077 3.895 3.895 0 0 0-1.309 5.022 3.884 3.884 0 0 0 2.31 1.944 3.891 3.891 0 0 0 3.016-.281l3.036-1.614 4.952-2.558 2.968-.017L8.808 48.588c0 .002-.002.002-.003.003l-2.928 2.916a3.607 3.607 0 0 0-1.073 2.577c0 .972.38 1.888 1.072 2.578a3.647 3.647 0 0 0 2.58 1.062c.936 0 1.869-.355 2.582-1.062l2.874-2.863 3.809-2.843 1.97 1.962-3.853 3.837-.004.002-2.928 2.917a3.607 3.607 0 0 0-1.073 2.576c0 .973.38 1.889 1.073 2.579a3.65 3.65 0 0 0 2.58 1.061c.935 0 1.87-.354 2.582-1.061l2.93-2.917 4.686-4.667.002-.003 2.21-2.188-.01-.008c.015-.014.035-.019.049-.034l11.3-12.377 7.593 1.08c.055.008.11.012.165.012.14 0 .277-.034.41-.084.038-.014.071-.033.108-.051.042-.021.086-.033.126-.06l7.029-4.666c.026-.018.04-.046.064-.065.028-.022.063-.031.089-.056l2.78-2.605a3.892 3.892 0 0 0 .465-5.166ZM8.66 38.872a1.56 1.56 0 0 1-1.221.113 1.565 1.565 0 0 1-.465-2.755l2.874-1.383.692 2.022.29.85-2.17 1.153Zm7.65-3.998-3.387 1.75-.558-1.633-.402-1.174 4.434-2.189-.087 3.246Zm33.03-14.482c0 2.009-.48 3.904-1.31 5.599l-9.147-4.155a4.07 4.07 0 0 0-1.724-3.035l3.203-10.633c5.2 1.655 8.978 6.507 8.978 12.224Zm-25.788 0c0-7.076 5.784-12.834 12.894-12.834.553 0 1.094.047 1.63.115L34.943 18.07c-.042 0-.081-.013-.124-.013a4.094 4.094 0 0 0-4.097 4.084 4.095 4.095 0 0 0 4.096 4.083c1.52 0 2.832-.838 3.54-2.066l8.45 3.838c-2.352 3.165-6.114 5.228-10.362 5.228-7.11 0-12.894-5.757-12.894-12.833Zm13.03 1.75c0 .965-.792 1.75-1.764 1.75a1.759 1.759 0 0 1-1.762-1.75c0-.965.79-1.75 1.763-1.75.971 0 1.762.785 1.762 1.75ZM9.391 55.007a1.33 1.33 0 0 1-1.87.002 1.3 1.3 0 0 1 0-1.847l2.105-2.097 1.862 1.854-2.097 2.088Zm7.03 8.167a1.33 1.33 0 0 1-1.87.002 1.299 1.299 0 0 1 0-1.847l2.106-2.098.88.876.983.978-2.099 2.09Zm7.616-7.588-.003.003-3.86 3.85-.882-.877-.982-.977 3.857-3.84v-.001l.004-.002c.087-.088.142-.193.196-.297.015-.03.044-.056.057-.087.036-.09.042-.187.056-.281.007-.054.03-.104.03-.16 0-.077-.028-.153-.044-.23-.014-.07-.014-.141-.041-.209a1.166 1.166 0 0 0-.2-.301c-.022-.026-.03-.058-.054-.083h-.002s0-.003-.002-.005l-3.515-3.5c-.037-.037-.085-.052-.127-.084a1.122 1.122 0 0 0-.19-.126 1.091 1.091 0 0 0-.204-.07 1.134 1.134 0 0 0-.226-.044 1.142 1.142 0 0 0-.208.01c-.079.01-.152.02-.228.045-.073.023-.139.06-.206.098-.044.024-.093.033-.133.063l-3.88 2.896-1.97-1.963 5.248-5.22 9.538 9.382-2.029 2.01Zm14.917-15.349c-.034-.005-.066.008-.1.006a1.148 1.148 0 0 0-.252.015 1.081 1.081 0 0 0-.404.15c-.065.04-.124.081-.181.134-.028.024-.062.036-.088.064L27.653 51.862l-9.468-9.311 6.198-6.165a1.168 1.168 0 0 0-.831-1.993l-4.854.028.061-3.516 6.79.058a15.2 15.2 0 0 0 10.897 4.596c.957 0 1.89-.1 2.799-.268.087.07.174.14.283.185l5.272 2.1.333 1.659.39 1.937-6.569-.935Zm8.84.39-.685-3.408 3.164-2.363.828 1.1 1.242 1.649-4.55 3.022Zm8.21-6.193-1.832 1.717-2.037-2.704 1.818-1.394c.34-.261.768-.368 1.188-.313.422.06.796.28 1.05.622a1.562 1.562 0 0 1-.187 2.072Z" fill="#212121"/><path d="m33.755 40.565-4.688-4.667a1.166 1.166 0 0 0-1.646 0l-4.687 4.667a1.172 1.172 0 0 0 0 1.654l4.686 4.667a1.166 1.166 0 0 0 1.647 0l4.688-4.667a1.167 1.167 0 0 0 0-1.654Zm-5.51 3.848-3.034-3.02 3.033-3.021 3.035 3.02-3.035 3.02ZM41.547 11.092l-.564 2.266c.156.039 3.801.988 3.801 4.7h2.334c0-4.412-3.644-6.486-5.571-6.966ZM47.118 20.392h-2.334v2.333h2.334v-2.333Z" fill="#212121"/></g><defs><filter id="a" x="0" y="0" width="78" height="78" filterUnits="userSpaceOnUse" color-interpolation-filters="sRGB"><feFlood flood-opacity="0" result="BackgroundImageFix"/><feColorMatrix in="SourceAlpha" values="0 0 0 0 0 0 0 0 0 0 0 0 0 0 0 0 0 0 127 0" result="hardAlpha"/><feOffset dy="4"/><feGaussianBlur stdDeviation="2"/><feComposite in2="hardAlpha" operator="out"/><feColorMatrix values="0 0 0 0 0 0 0 0 0 0 0 0 0 0 0 0 0 0 0.25 0"/><feBlend in2="BackgroundImageFix" result="effect1_dropShadow_1_365"/><feBlend in="SourceGraphic" in2="effect1_dropShadow_1_365" result="shape"/></filter></defs></svg>
